icon_installer/data/icons/scalable/actions/show-bluetooth-symbolic.svg

<?xml version="1.0" encoding="UTF-8"?>
<svg height="16px" viewBox="0 0 16 16" width="16px" xmlns="http://www.w3.org/2000/svg">
    <path d="m 6 0 v 4.585938 l -1.292969 -1.292969 c -0.1875 -0.183594 -0.445312 -0.285157 -0.707031 -0.28125 v -0.011719 h -1 v 1 h 0.011719 c -0.003907 0.261719 0.097656 0.519531 0.28125 0.707031 l 2.707031 2.707031 v 1.171876 l -2.707031 2.707031 c -0.183594 0.1875 -0.285157 0.445312 -0.28125 0.707031 h -0.011719 v 1 h 1 v -0.011719 c 0.261719 0.003907 0.519531 -0.097656 0.707031 -0.28125 l 1.292969 -1.292969 v 4.585938 h 1 v -0.011719 c 0.261719 0.003907 0.519531 -0.097656 0.707031 -0.28125 l 4 -4 c 0.390625 -0.390625 0.390625 -1.023437 0 -1.414062 l -2.292969 -2.292969 l 2.292969 -2.292969 c 0.390625 -0.390625 0.390625 -1.023437 0 -1.414062 l -4 -4 c -0.1875 -0.183594 -0.441406 -0.2851565 -0.707031 -0.2812502 v -0.0117188 z m 2 3.414062 l 1.585938 1.585938 l -1.585938 1.585938 z m 0 6 l 1.585938 1.585938 l -1.585938 1.585938 z m 0 0" fill="#222222"/>
</svg>

<svg xmlns="http://www.w3.org/2000/svg" width="16" height="16"><path fill="#222" d="M6 0v4.586L4.707 3.293A.995.995 0 0 0 4 3.012V3H3v1h.012a.995.995 0 0 0 .281.707L6 7.414v1.172l-2.707 2.707a.995.995 0 0 0-.281.707H3v1h1v-.012a.995.995 0 0 0 .707-.281L6 11.414V16h1v-.012a.995.995 0 0 0 .707-.281l4-4a1 1 0 0 0 0-1.414L9.414 8l2.293-2.293a1 1 0 0 0 0-1.414l-4-4A.988.988 0 0 0 7 .012V0zm2 3.414L9.586 5 8 6.586zm0 6L9.586 11 8 12.586zm0 0"/></svg>
